X:126
T:(untitled)
T:John Malchair's Third Collection of Tunes
F:https://www.vwml.org/record/Malchair/3619/p126
%%VWML:Malchair-3619-p126
F:www.vwml.org/topics/historic-dance-and-tune-books/Malchair
Z:Eric Conrad Feb 2020
% Since this harmony piece appears after melody pieces, it needs to be indexed separately.
M:none % no time signature in MS, but barring is 3/2
L:1/4
V:A clef=treble
V:B clef=bass octave=-1
%%staff {A B}
% clefs are omitted in the MS
K:C
V:A
[GB]4 G2 | [DGB]4 [DGd]2 | [CFA]3 [B,EG] [CFA]2 | [B,G]6 :|
[DB]4 [DA]2 | G2 [FA]4 | [Ac]4 [GB]2 | [FA]2 [GB]4 |]
V:B
% The second D in measure C is missing its stem,
% but it is written below the three note chord in the upper staff.
% The final note in the lower staff is a half note, as transcribed here. 
[GD]4 [GB]2 | G4 B,2 | D4 D2 | G,6 :|
G4 [FA]2 | [EB]2 [Dd]4 | [Fd]4 [Gd]2 | [Dd]2 [Gd]2 x2 |]

